X: 12619
T: Farewell To Whisky
R: polka
M: 2/4
K: Gmajor
|:D2 G2 BAGA|B2 E2 EGFE|D2 G2 BAGA|d2 B2 B2 d2|
efge d2 B2|cBAG A2 B2|D2 G2 BAGA|B2 G2 G4:|
|:d2 Bd g2 d2|efge d2 B2|d2 Bd g2 d2|e2 f2 g4|
efge d2 B2|cBAG A2 B2|D2 G2 BAGA|B2 G2 G4:|

